public/assets/img/casestudies/borgatta/nextPortfolio_logo.svg

<svg fill="none" height="88" viewBox="0 0 612 88" width="612" xmlns="http://www.w3.org/2000/svg" xmlns:xlink="http://www.w3.org/1999/xlink"><clipPath id="a"><path d="m269.555 17.0332h341.363v68.1309h-341.363z"/></clipPath><path clip-rule="evenodd" d="m.519531 23.8902v4.3195c0 5.3502 4.371129 12.8357 11.770269 15.3881 0 0 .055.0214.1574.0613-.1024.04-.1574.0614-.1574.0614-7.39914 2.5524-11.770269 10.0624-11.770269 15.3881v4.3194c0 13.9892 11.501669 20.8365 22.759169 20.8365 6.7806 0 13.3795-2.7603 17.7179-8.149 4.338 5.4048 10.9466 8.1734 17.7374 8.1734 11.2575 0 22.7592-6.8718 22.7592-20.8365v-4.3194c0-5.3257-4.3712-12.8357-11.7459-15.3881-.0023-.0023-.0816-.0345-.2257-.0918.132-.0518.2034-.0799.2034-.0799 7.3992-2.5524 11.7459-10.0378 11.7459-15.3881v-4.2949c.0245-13.96461-11.4772-20.83649-22.7347-20.83649-6.8098 0-13.3921 2.76494-17.7288 8.16249-4.3366-5.39755-10.919-8.16249-17.7287-8.16249-11.2575 0-22.759169 6.87188-22.759169 20.83649zm45.542769 3.3131c.0003-.0068.0113-.3307 0-.8901v-.4105c.5861-8.3935 6.6666-12.4185 12.796-12.4185 6.2026 0 12.5273 3.5587 12.5273 10.406v4.3195c0 5.5957-5.6654 9.9397-13.1622 10.9214 0 0-.0001.0085-.0003.0251-.0007-.0002-.0013-.0005-.0019-.0008-.0503 0-.0488 2.3929-.0355 4.7153.0125 2.1895.0355 4.3163.0355 4.3163 7.4724 1.0063 13.1622 5.3257 13.1622 10.9214v4.3195c0 6.8719-6.3247 10.4305-12.5273 10.4305-6.0499 0-12.0997-3.9212-12.8192-12.0941.0473-1.0247.0254-1.6495.0254-1.6495v-32.9114s0 0 0-.0001zm-10.0855-1.6244c-.6964-8.1733-6.7702-12.0947-12.8202-12.0947-6.2026 0-12.5273 3.5341-12.5273 10.406v4.344c0 5.5957 5.6654 9.9397 13.1622 10.9214.049-.0123.0489 2.255.0366 4.5207.0123 2.2685.0124 4.5355-.0366 4.5109-7.4968.9817-13.1622 5.3257-13.1622 10.9214v4.3194c0 6.8719 6.3247 10.4306 12.5273 10.4306 6.1294 0 12.2099-3.9759 12.796-12.3694v-.3604c-.015-.6265-.0022-.9896-.0022-.9896l.0022.0003v-32.9361-.8835c.0041-.2139.0115-.4625.0242-.741zm73.8202-22.47441c-10.9646 0-20.9767 5.91473-20.9767 18.94671v42.8266c0 13.0074 10.354 19.2903 21.1967 19.2903 10.378 0 21.098-6.2583 21.098-19.2903v-14.7991c0-12.7866-10.256-18.7013-21.098-18.7013-3.639 0-10.012 2.2579-12.0149 6.9945l.1221-16.3452c0-6.2829 5.6658-9.4734 11.6728-9.4734 3.541 0 7.301 1.2026 11.428 5.1048l1.759-1.767h.122c.083-.0783.159-.1516.229-.2194v-.0001c.238-.2297.412-.3975.601-.4922.11-.1106.299-.3008.514-.4272-.01.0128.011.002.072-.0391-.024.0121-.048.0252-.072.0391.038-.0456.478-.3928.903-.7284.165-.1298.327-.2578.463-.3661l.025-.0196c.601-.4838 1.187-.9549 2.344-2.2383-6.716-6.99456-12.259-8.29531-18.388-8.29531zm.22 37.67261c6.007 0 11.672 3.0678 11.672 9.3507v14.8236c-.244 6.4056-6.129 9.7188-11.794 9.7188-5.886 0-11.7708-3.3132-11.7708-9.7188v-14.4555c0-6.651 5.7628-9.7188 11.8928-9.7188zm32.628-18.4811c0-12.86018 10.549-19.16758 21.562-19.16758 10.549 0 21.343 6.3074 21.343 19.16758v42.532c0 13.2284-10.794 19.5358-21.343 19.5358-11.013 0-21.562-6.3074-21.562-19.5358zm9.499 42.5075c0 6.5528 5.934 9.8906 12.088 9.8906 5.811 0 11.843-3.3378 11.843-9.8906v-42.5075c0-6.1846-6.032-9.5224-11.843-9.5224-6.154 0-12.088 3.3378-12.088 9.5224z" fill="#fbfbfd" fill-rule="evenodd"/><path d="m227.551 1.70898v83.99992" stroke="#fff" stroke-linecap="round" stroke-width="3.4054"/><g clip-path="url(#a)" fill="#fff"><path d="m604.546 70.6937c3.52 0 6.374-2.8537 6.374-6.374 0-3.5202-2.854-6.3739-6.374-6.3739s-6.374 2.8537-6.374 6.3739c0 3.5203 2.854 6.374 6.374 6.374z"/><path d="m595.281 42.9642c-2.205-5.2251-9.985-8.4291-20.179-8.4291h-.058c-5.39.0513-10.756.7164-15.995 1.9825-1.232.2996-2.328 1.0042-3.112 2.0009s-1.211 2.2277-1.212 3.4957v4.5854c6.094-2.5392 12.627-3.8567 19.229-3.8777 7.576 0 11.57 1.8176 11.57 4.7259v.3248c-11.187 0-21.643.2326-27.837 2.5544-4.149 1.5365-7.484 4.4108-7.484 9.6118-.004.8471.093 1.6917.291 2.5156-1.062.1479-2.133.2224-3.204.223-4.576 0-8.352-1.3814-8.352-6.1704v-12.8981h14.493v-8.5988h-14.493v-7.8911h-6.442c-1.092-.0007-2.145.4114-2.947 1.1539-.802.7424-1.293 1.7603-1.376 2.8499l-.301 3.8776h-20.809v-7.8814h-6.403c-1.103-.0029-2.167.4125-2.976 1.1627-.81.7501-1.305 1.7792-1.386 2.8798l-.301 3.8486h-6.912v5.6178c-3.276-3.8292-10.14-6.0928-18.709-6.0928h-.063c-5.29.059-10.556.7093-15.7 1.9389-1.311.3183-2.476 1.0677-3.309 2.1278-.833 1.06-1.286 2.3694-1.286 3.7178v4.28c6.087-2.5367 12.614-3.8542 19.209-3.8777 7.581 0 11.57 1.8176 11.57 4.7259v.3248c-11.187 0-21.642.2326-27.842 2.5544-3.514 1.2942-6.456 3.5626-7.271 7.3967v-21.4872h-7.503c-.689.0041-1.355.2529-1.878.7022-.523.4492-.869 1.0695-.977 1.7504l-.213 1.4541c-4.556-4.1685-11.221-5.5208-16.388-5.5208-5.444 0-12.603 1.4977-17.256 6.0395v-6.1025c-2.089-.4214-4.214-.6374-6.345-.6447-5.758 0-12.51 1.7013-16.33 7.164l-.586-5.3997h-5.041c-1.311 0-2.568.5203-3.495 1.4464s-1.448 2.1824-1.449 3.4928v6.6696c-3.544-9.6942-15.487-11.9093-24.192-11.9093-9.346 0-22.409 2.5399-24.832 14.1487-2.768-12.1178-16.039-11.7785-16.039-11.7785h-22.627v-20.7165l-10.978.0388v52.6299l36.314-.0776c2.144.0632 4.275-.3507 6.239-1.2118 1.68-.6978 3.173-1.7783 4.362-3.1554 1.16-1.437 2.005-3.1016 2.482-4.8859.18-.6591.326-1.3273.436-2.0019 2.845 10.9302 15.511 13.3586 24.647 13.3586 8.725 0 20.649-2.2102 24.192-11.9141v11.633h10.572v-13.1841c0-9.6942 3.761-15.6222 15.627-15.6222 1.671.0307 3.336.2009 4.978.5089-1.677 2.506-2.705 5.6808-2.705 9.6555 0 14.2698 13.248 18.1766 22.031 18.1766 5.167 0 11.831-1.3475 16.388-5.5209v.383c0 7.5469-6.302 10.3679-15.686 10.3679-5.295-.04-10.538-1.0401-15.476-2.9519v9.0447c5.137 1.7014 9.863 2.8744 15.302 2.8744 18.647 0 26.431-8.6037 26.431-18.2639v-4.7502c1.382 6.5097 8.972 8.7248 16.752 8.7248 8.492 0 15.772-2.6417 18.356-5.9619l.577 6.34h9.985v-21.7587c0-2.9082-.155-4.5708-.587-5.9038h5.206v12.8449c0 11.759 8.725 14.9824 18.152 14.9824 3.032-.0737 6.04-.563 8.939-1.4542v-8.6181c-2.464.8862-5.065 1.3324-7.683 1.3184-4.576 0-8.352-1.3814-8.352-6.1704v-12.8981h20.843v12.84c0 11.759 8.725 14.9824 18.148 14.9824 3.031-.0727 6.039-.562 8.938-1.4542v-1.7352c3.213 1.9388 7.677 2.6707 12.21 2.6707 8.482 0 15.767-2.6416 18.351-5.9619l.591 6.3352h9.985v-21.7781c-.005-3.393-.213-5.0797-.819-6.5436zm-286.949 13.8773c-.229.659-.649 1.2347-1.207 1.6529-.536.3561-1.156.565-1.799.6058-.725.0618-1.453.0861-2.181.0727l-22.631.0776v-11.1483l22.651-.0485c.728-.0142 1.456.0117 2.181.0775.641.0414 1.261.2485 1.798.6011.55.4202.963.9936 1.188 1.648.359 1.037.523 2.1314.484 3.2282.038 1.0982-.126 2.1941-.484 3.233zm35.684 6.5242c-7.023 0-14.658-2.4672-14.658-9.8106 0-7.3433 7.635-9.8056 14.658-9.8056 7.024 0 14.653 2.4623 14.653 9.8056 0 7.3434-7.615 9.8106-14.634 9.8106zm77.181-.7707c-6.67 0-13.921-2.472-13.921-9.8105 0-7.3386 7.27-9.8106 13.921-9.8106 6.65 0 13.921 3.1409 13.921 9.83 0 6.689-7.256 9.7911-13.921 9.7911zm41.835.2617c-2.147 0-6.374-.4847-6.374-3.3154.028-.5588.2-1.1009.498-1.5745s.712-.8627 1.204-1.1302c3.819-2.3217 15.918-2.3217 20.178-2.3217h2.259c0 4.3333-7.077 8.3612-17.765 8.3612zm104.722 0c-2.147 0-6.374-.4847-6.374-3.3154.028-.5596.199-1.1026.498-1.5765s.715-.8625 1.208-1.1282c3.815-2.3217 15.913-2.3217 20.174-2.3217h2.259c0 4.3333-7.077 8.3612-17.765 8.3612z"/></g></svg>

<svg width="612" height="88" viewBox="0 0 612 88" fill="none" xmlns="http://www.w3.org/2000/svg">
<path fill-rule="evenodd" clip-rule="evenodd" d="M0.519531 23.8902V28.2097C0.519531 33.5599 4.89066 41.0454 12.2898 43.5978C12.2898 43.5978 12.3448 43.6192 12.4472 43.6591C12.3448 43.6991 12.2898 43.7205 12.2898 43.7205C4.89066 46.2729 0.519531 53.7829 0.519531 59.1086V63.428C0.519531 77.4172 12.0212 84.2645 23.2787 84.2645C30.0593 84.2645 36.6582 81.5042 40.9966 76.1155C45.3346 81.5203 51.9432 84.2889 58.734 84.2889C69.9915 84.2889 81.4932 77.4171 81.4932 63.4524V59.133C81.4932 53.8073 77.122 46.2973 69.7473 43.7449C69.745 43.7426 69.6657 43.7104 69.5216 43.6531C69.6536 43.6013 69.725 43.5732 69.725 43.5732C77.1242 41.0208 81.4709 33.5354 81.4709 28.1851V23.8902C81.4954 9.92559 69.9937 3.05371 58.7362 3.05371C51.9264 3.05371 45.3441 5.81865 41.0074 11.2162C36.6708 5.81865 30.0884 3.05371 23.2787 3.05371C12.0212 3.05371 0.519531 9.92559 0.519531 23.8902ZM46.0623 27.2033C46.0626 27.1965 46.0736 26.8726 46.0623 26.3132V25.9027C46.6484 17.5092 52.7289 13.4842 58.8583 13.4842C65.0609 13.4842 71.3856 17.0429 71.3856 23.8902V28.2097C71.3856 33.8054 65.7202 38.1494 58.2234 39.1311C58.2234 39.1311 58.2233 39.1396 58.2231 39.1562C58.2224 39.156 58.2218 39.1557 58.2212 39.1554C58.1709 39.1554 58.1724 41.5483 58.1857 43.8707C58.1982 46.0602 58.2212 48.187 58.2212 48.187C65.6936 49.1933 71.3834 53.5127 71.3834 59.1084V63.4279C71.3834 70.2998 65.0587 73.8584 58.8561 73.8584C52.8062 73.8584 46.7564 69.9372 46.0369 61.7643C46.0842 60.7396 46.0623 60.1148 46.0623 60.1148L46.0623 27.2034C46.0623 27.2034 46.0623 27.2034 46.0623 27.2033ZM35.9768 25.5789C35.2804 17.4056 29.2066 13.4842 23.1566 13.4842C16.954 13.4842 10.6293 17.0183 10.6293 23.8902V28.2342C10.6293 33.8299 16.2947 38.1739 23.7915 39.1556C23.8405 39.1433 23.8404 41.4106 23.8281 43.6763C23.8404 45.9448 23.8405 48.2118 23.7915 48.1872C16.2947 49.1689 10.6293 53.5129 10.6293 59.1086V63.428C10.6293 70.2999 16.954 73.8586 23.1566 73.8586C29.286 73.8586 35.3665 69.8827 35.9526 61.4892V61.1288C35.9376 60.5023 35.9504 60.1392 35.9504 60.1392L35.9526 60.1395V27.2034V26.3199C35.9567 26.106 35.9641 25.8574 35.9768 25.5789ZM109.797 3.10449C98.8324 3.10449 88.8203 9.01922 88.8203 22.0512V64.8778C88.8203 77.8852 99.1743 84.1681 110.017 84.1681C120.395 84.1681 131.115 77.9098 131.115 64.8778V50.0787C131.115 37.2921 120.859 31.3774 110.017 31.3774C106.378 31.3774 100.005 33.6353 98.0021 38.3719L98.1242 22.0267C98.1242 15.7438 103.79 12.5533 109.797 12.5533C113.338 12.5533 117.098 13.7559 121.225 17.6581L122.984 15.8911H123.106C123.189 15.8128 123.265 15.7395 123.335 15.6717L123.335 15.6716C123.573 15.4419 123.747 15.2741 123.936 15.1794C124.046 15.0688 124.235 14.8786 124.45 14.7522C124.44 14.765 124.461 14.7542 124.522 14.7131C124.498 14.7252 124.474 14.7383 124.45 14.7522C124.488 14.7066 124.928 14.3594 125.353 14.0238C125.518 13.894 125.68 13.766 125.816 13.6577L125.841 13.6381C126.442 13.1543 127.028 12.6832 128.185 11.3998C121.469 4.40524 115.926 3.10449 109.797 3.10449ZM110.017 40.7771C116.024 40.7771 121.689 43.8449 121.689 50.1278V64.9514C121.445 71.357 115.56 74.6702 109.895 74.6702C104.009 74.6702 98.1242 71.357 98.1242 64.9514V50.4959C98.1242 43.8449 103.887 40.7771 110.017 40.7771ZM142.645 22.296C142.645 9.43582 153.194 3.12842 164.207 3.12842C174.756 3.12842 185.55 9.43582 185.55 22.296V64.828C185.55 78.0564 174.756 84.3638 164.207 84.3638C153.194 84.3638 142.645 78.0564 142.645 64.828V22.296ZM152.144 64.8035C152.144 71.3563 158.078 74.6941 164.232 74.6941C170.043 74.6941 176.075 71.3563 176.075 64.8035V22.296C176.075 16.1114 170.043 12.7736 164.232 12.7736C158.078 12.7736 152.144 16.1114 152.144 22.296V64.8035Z" fill="#FBFBFD"/>
<path d="M227.551 1.70898V85.7089" stroke="white" stroke-width="3.4054" stroke-linecap="round"/>
<g clip-path="url(#clip0_2113_141425)">
<path d="M604.546 70.6937C608.066 70.6937 610.92 67.84 610.92 64.3197C610.92 60.7995 608.066 57.9458 604.546 57.9458C601.026 57.9458 598.172 60.7995 598.172 64.3197C598.172 67.84 601.026 70.6937 604.546 70.6937Z" fill="white"/>
<path d="M595.281 42.9642C593.076 37.7391 585.296 34.5351 575.102 34.5351H575.044C569.654 34.5864 564.288 35.2515 559.049 36.5176C557.817 36.8172 556.721 37.5218 555.937 38.5185C555.153 39.5152 554.726 40.7462 554.725 42.0142V46.5996C560.819 44.0604 567.352 42.7429 573.954 42.7219C581.53 42.7219 585.524 44.5395 585.524 47.4478V47.7726C574.337 47.7726 563.881 48.0052 557.687 50.327C553.538 51.8635 550.203 54.7378 550.203 59.9388C550.199 60.7859 550.296 61.6305 550.494 62.4544C549.432 62.6023 548.361 62.6768 547.29 62.6774C542.714 62.6774 538.938 61.296 538.938 56.507V43.6089H553.431V35.0101H538.938V27.119H532.496C531.404 27.1183 530.351 27.5304 529.549 28.2729C528.747 29.0153 528.256 30.0332 528.173 31.1228L527.872 35.0004H507.063V27.119H500.66C499.557 27.1161 498.493 27.5315 497.684 28.2817C496.874 29.0318 496.379 30.0609 496.298 31.1615L495.997 35.0101H489.085V40.6279C485.809 36.7987 478.945 34.5351 470.376 34.5351H470.313C465.023 34.5941 459.757 35.2444 454.613 36.474C453.302 36.7923 452.137 37.5417 451.304 38.6018C450.471 39.6618 450.018 40.9712 450.018 42.3196V46.5996C456.105 44.0629 462.632 42.7454 469.227 42.7219C476.808 42.7219 480.797 44.5395 480.797 47.4478V47.7726C469.61 47.7726 459.155 48.0052 452.955 50.327C449.441 51.6212 446.499 53.8896 445.684 57.7237V36.2365H438.181C437.492 36.2406 436.826 36.4894 436.303 36.9387C435.78 37.3879 435.434 38.0082 435.326 38.6891L435.113 40.1432C430.557 35.9747 423.892 34.6224 418.725 34.6224C413.281 34.6224 406.122 36.1201 401.469 40.6619V34.5594C399.38 34.138 397.255 33.922 395.124 33.9147C389.366 33.9147 382.614 35.616 378.794 41.0787L378.208 35.679H373.167C371.856 35.679 370.599 36.1993 369.672 37.1254C368.745 38.0515 368.224 39.3078 368.223 40.6182V47.2878C364.679 37.5936 352.736 35.3785 344.031 35.3785C334.685 35.3785 321.622 37.9184 319.199 49.5272C316.431 37.4094 303.16 37.7487 303.16 37.7487H280.533V17.0322L269.555 17.071V69.7009L305.869 69.6233C308.013 69.6865 310.144 69.2726 312.108 68.4115C313.788 67.7137 315.281 66.6332 316.47 65.2561C317.63 63.8191 318.475 62.1545 318.952 60.3702C319.132 59.7111 319.278 59.0429 319.388 58.3683C322.233 69.2985 334.899 71.7269 344.035 71.7269C352.76 71.7269 364.684 69.5167 368.227 59.8128V71.4458H378.799V58.2617C378.799 48.5675 382.56 42.6395 394.426 42.6395C396.097 42.6702 397.762 42.8404 399.404 43.1484C397.727 45.6544 396.699 48.8292 396.699 52.8039C396.699 67.0737 409.947 70.9805 418.73 70.9805C423.897 70.9805 430.561 69.633 435.118 65.4596V65.8426C435.118 73.3895 428.816 76.2105 419.432 76.2105C414.137 76.1705 408.894 75.1704 403.956 73.2586V82.3033C409.093 84.0047 413.819 85.1777 419.258 85.1777C437.905 85.1777 445.689 76.574 445.689 66.9138V62.1636C447.071 68.6733 454.661 70.8884 462.441 70.8884C470.933 70.8884 478.213 68.2467 480.797 64.9265L481.374 71.2665H491.359V49.5078C491.359 46.5996 491.204 44.937 490.772 43.604H495.978V56.4489C495.978 68.2079 504.703 71.4313 514.13 71.4313C517.162 71.3576 520.17 70.8683 523.069 69.9771V61.359C520.605 62.2452 518.004 62.6914 515.386 62.6774C510.81 62.6774 507.034 61.296 507.034 56.507V43.6089H527.877V56.4489C527.877 68.2079 536.602 71.4313 546.025 71.4313C549.056 71.3586 552.064 70.8693 554.963 69.9771V68.2419C558.176 70.1807 562.64 70.9126 567.173 70.9126C575.655 70.9126 582.94 68.271 585.524 64.9507L586.115 71.2859H596.1V49.5078C596.095 46.1148 595.887 44.4281 595.281 42.9642ZM308.332 56.8415C308.103 57.5005 307.683 58.0762 307.125 58.4944C306.589 58.8505 305.969 59.0594 305.326 59.1002C304.601 59.162 303.873 59.1863 303.145 59.1729L280.514 59.2505V48.1022L303.165 48.0537C303.893 48.0395 304.621 48.0654 305.346 48.1312C305.987 48.1726 306.607 48.3797 307.144 48.7323C307.694 49.1525 308.107 49.7259 308.332 50.3803C308.691 51.4173 308.855 52.5117 308.816 53.6085C308.854 54.7067 308.69 55.8026 308.332 56.8415ZM344.016 63.3657C336.993 63.3657 329.358 60.8985 329.358 53.5551C329.358 46.2118 336.993 43.7495 344.016 43.7495C351.04 43.7495 358.669 46.2118 358.669 53.5551C358.669 60.8985 351.054 63.3657 344.035 63.3657H344.016ZM421.197 62.595C414.527 62.595 407.276 60.123 407.276 52.7845C407.276 45.4459 414.546 42.9739 421.197 42.9739C427.847 42.9739 435.118 46.1148 435.118 52.8039C435.118 59.4929 427.862 62.595 421.197 62.595ZM463.032 62.8567C460.885 62.8567 456.658 62.372 456.658 59.5413C456.686 58.9825 456.858 58.4404 457.156 57.9668C457.454 57.4932 457.868 57.1041 458.36 56.8366C462.179 54.5149 474.278 54.5149 478.538 54.5149H480.797C480.797 58.8482 473.72 62.8761 463.032 62.8761V62.8567ZM567.754 62.8567C565.607 62.8567 561.38 62.372 561.38 59.5413C561.408 58.9817 561.579 58.4387 561.878 57.9648C562.177 57.4909 562.593 57.1023 563.086 56.8366C566.901 54.5149 578.999 54.5149 583.26 54.5149H585.519C585.519 58.8482 578.442 62.8761 567.754 62.8761V62.8567Z" fill="white"/>
</g>
<defs>
<clipPath id="clip0_2113_141425">
<rect width="341.363" height="68.1309" fill="white" transform="translate(269.555 17.0332)"/>
</clipPath>
</defs>
</svg>
